public/assets/images/section1-illo.svg

<svg enable-background="new 0 0 324 328" viewBox="0 0 324 328" xmlns="http://www.w3.org/2000/svg"><path d="m285.2 172.4c-18.9-13.8-46.7-7.9-62.2 13.3s-12.8 49.5 6.1 63.3 46.7 7.9 62.2-13.3c15.5-21.1 12.8-49.5-6.1-63.3zm-12.2 50c-7.2 9.8-20.2 12.6-28.9 6.2-8.8-6.4-10-19.6-2.8-29.4s20.2-12.6 28.9-6.2c8.8 6.3 10 19.5 2.8 29.4z" fill="#f3c74a"/><g fill="#f3c74a" opacity=".53"><path d="m244.4 228.8c-1.9-1.4-3.4-3-4.5-4.9l-.3 30.7c7.6 2.6 15.9 2.8 24 .8l5.9-28.6c-7.4 6.3-17.7 7.4-25.1 2z"/><path d="m241.6 199.4c7.2-9.8 20.2-12.6 28.9-6.2 2 1.5 3.6 3.3 4.8 5.4l5.9-28.6c-12.4-6.8-27.7-6.2-40.8.9l-.3 30.7c.5-.7 1-1.5 1.5-2.2z"/></g><path d="m183.9 308h-98.1c-5 0-9-4-9-9 0-5 4-9 9-9h98.1c5 0 9 4 9 9 0 5-4.1 9-9 9z" fill="#f3c74a"/><path d="m246.3 171.7c.1-2.2.2-4.3.3-6.5.3-9.4-7.2-17.2-16.6-17.2h-190.3c-9.4 0-16.9 7.8-16.6 17.2.4 10.8 1.1 21.5 2.2 31.9v-26.1c9.5.1 17.1 2.2 17.1 27.8 0 15.3-3.9 35.7-8.5 50.3 9.9 33 40.6 55.9 75.6 55.9h50.6c31.6 0 59.7-18.7 72.1-46.6-5.8-13.8-11.8-40.5-11.8-59.5 0-25.6 7.6-27.7 17.1-27.8v70.5c.8-3.7 1.5-7.4 2.1-11.1v-59.5c2.5 0 4.7.2 6.7.7z" fill="#f3c74a"/><g fill="#f8eec8"><path d="m90 198.8c0 25.2 10.5 64 17.1 68.1v-95.9c-9.5.1-17.1 2.2-17.1 27.8z"/><path d="m126.4 198.8c0-25.6-7.6-27.7-17.1-27.8v95.9c6.5-4 17.1-42.9 17.1-68.1z"/><path d="m47.5 198.8c0 25.2 10.5 64 17.1 68.1v-95.9c-9.5.1-17.1 2.2-17.1 27.8z"/><path d="m83.9 198.8c0-25.6-7.6-27.7-17.1-27.8v95.9c6.5-4 17.1-42.9 17.1-68.1z"/><path d="m135 198.8c0 25.2 10.5 64 17.1 68.1v-95.9c-9.5.1-17.1 2.2-17.1 27.8z"/><path d="m171.4 198.8c0-25.6-7.6-27.7-17.1-27.8v95.9c6.5-4 17.1-42.9 17.1-68.1z"/><path d="m178 198.8c0 25.2 10.5 64 17.1 68.1v-95.9c-9.5.1-17.1 2.2-17.1 27.8z"/><path d="m214.4 198.8c0-25.6-7.6-27.7-17.1-27.8v95.9c6.5-4 17.1-42.9 17.1-68.1z"/><path d="m25.3 171v26.1c1.6 15.8 4 31.1 7 45.5.5 2.2 1 4.3 1.7 6.4 4.5-14.5 8.5-34.9 8.5-50.3-.1-25.5-7.7-27.6-17.2-27.7z"/><path d="m220.5 198.8c0 19 6 45.8 11.8 59.5 2.2-5 3.9-10.2 5.1-15.7.1-.4.2-.8.2-1.2v-70.4c-9.5.1-17.1 2.2-17.1 27.8z"/><path d="m239.8 171v59.3c3.3-18.5 5.5-38.2 6.5-58.6-2-.5-4.2-.7-6.5-.7z"/><path d="m139.7 26.7c3-5.5 7-9 11.3-11 2.8-1.2 2.1-5.2-.9-5.5-3.6-.3-7.3.3-10.8 2.1-9 4.5-13.4 15.2-10 24.7 1.4 3.8 3.7 7 6.7 9.3 2.6 2 6.2-.8 4.8-3.8-2-4.3-2.6-9.7-1.1-15.8z"/><path d="m137.1 38.7c1 .7 2 1.5 2.9 2.5 6.5 6.6 7.5 17.1 2.5 24.9-.9 1.3-1.8 2.5-2.9 3.6-1.6 1.5-.1 4.1 2 3.6 4.5-1.1 8.6-3.7 11.6-7.8 5.9-8.2 4.8-19.7-2.6-26.6-3.3-3.1-7.4-4.9-11.6-5.3-2.9-.4-4.4 3.4-1.9 5.1z"/><path d="m130.1 79c3-5.5 7-9 11.3-11 2.8-1.2 2.1-5.2-.9-5.5-3.6-.3-7.3.3-10.8 2.1-9 4.5-13.4 15.2-10 24.7 1.4 3.8 3.7 7 6.7 9.3 2.6 2 6.2-.8 4.8-3.8-2-4.3-2.6-9.7-1.1-15.8z"/><path d="m130.9 93.3c1 .7 2 1.5 2.9 2.5 6.5 6.6 7.5 17.1 2.5 24.9-.9 1.3-1.8 2.5-2.9 3.6-1.6 1.5-.1 4.1 2 3.6 4.5-1.1 8.6-3.7 11.6-7.8 5.9-8.2 4.8-19.7-2.6-26.6-3.3-3.1-7.4-4.9-11.6-5.3-2.8-.4-4.3 3.3-1.9 5.1z"/></g><path d="m136.2 283.2c-55.5-11.7-98-45.4-110.1-82.9.6 8.3 2.8 32.9 8.5 49.2 9.9 33 40.6 55.9 75.6 55.9h50.6c21.5 0 41.5-8.7 55.9-23.1-23.9 6.2-51.8 6.9-80.5.9z" fill="#f3c74a" opacity=".53"/></svg>

<?xml version="1.0" encoding="utf-8"?>
<!-- Generator: Adobe Illustrator 21.1.0, SVG Export Plug-In . SVG Version: 6.00 Build 0)  -->
<svg version="1.1" id="Layer_1" xmlns="http://www.w3.org/2000/svg" xmlns:xlink="http://www.w3.org/1999/xlink" x="0px" y="0px"
	 viewBox="0 0 324 328" style="enable-background:new 0 0 324 328;" xml:space="preserve">
<style type="text/css">
	.st0{fill:#F3C74A;}
	.st1{opacity:0.53;}
	.st2{fill:#F8EEC8;}
	.st3{opacity:0.53;fill:#F3C74A;}
</style>
<g>
	<path class="st0" d="M285.2,172.4c-18.9-13.8-46.7-7.9-62.2,13.3c-15.5,21.2-12.8,49.5,6.1,63.3c18.9,13.8,46.7,7.9,62.2-13.3
		C306.8,214.6,304.1,186.2,285.2,172.4z M273,222.4c-7.2,9.8-20.2,12.6-28.9,6.2c-8.8-6.4-10-19.6-2.8-29.4
		c7.2-9.8,20.2-12.6,28.9-6.2C279,199.3,280.2,212.5,273,222.4z"/>
</g>
<g class="st1">
	<path class="st0" d="M244.4,228.8c-1.9-1.4-3.4-3-4.5-4.9l-0.3,30.7c7.6,2.6,15.9,2.8,24,0.8l5.9-28.6
		C262.1,233.1,251.8,234.2,244.4,228.8z"/>
	<path class="st0" d="M241.6,199.4c7.2-9.8,20.2-12.6,28.9-6.2c2,1.5,3.6,3.3,4.8,5.4l5.9-28.6c-12.4-6.8-27.7-6.2-40.8,0.9
		l-0.3,30.7C240.6,200.9,241.1,200.1,241.6,199.4z"/>
</g>
<path class="st0" d="M183.9,308H85.8c-5,0-9-4-9-9l0,0c0-5,4-9,9-9h98.1c5,0,9,4,9,9l0,0C192.9,304,188.8,308,183.9,308z"/>
<path class="st0" d="M246.3,171.7c0.1-2.2,0.2-4.3,0.3-6.5c0.3-9.4-7.2-17.2-16.6-17.2H39.7c-9.4,0-16.9,7.8-16.6,17.2
	c0.4,10.8,1.1,21.5,2.2,31.9V171c9.5,0.1,17.1,2.2,17.1,27.8c0,15.3-3.9,35.7-8.5,50.3c9.9,33,40.6,55.9,75.6,55.9h50.6
	c31.6,0,59.7-18.7,72.1-46.6c-5.8-13.8-11.8-40.5-11.8-59.5c0-25.6,7.6-27.7,17.1-27.8v70.5c0.8-3.7,1.5-7.4,2.1-11.1V171
	C242.1,171,244.3,171.2,246.3,171.7z"/>
<g>
	<path class="st2" d="M90,198.8c0,25.2,10.5,64,17.1,68.1V171C97.6,171.1,90,173.2,90,198.8z"/>
	<path class="st2" d="M126.4,198.8c0-25.6-7.6-27.7-17.1-27.8v95.9C115.8,262.9,126.4,224,126.4,198.8z"/>
</g>
<g>
	<path class="st2" d="M47.5,198.8c0,25.2,10.5,64,17.1,68.1V171C55.1,171.1,47.5,173.2,47.5,198.8z"/>
	<path class="st2" d="M83.9,198.8c0-25.6-7.6-27.7-17.1-27.8v95.9C73.3,262.9,83.9,224,83.9,198.8z"/>
</g>
<g>
	<path class="st2" d="M135,198.8c0,25.2,10.5,64,17.1,68.1V171C142.6,171.1,135,173.2,135,198.8z"/>
	<path class="st2" d="M171.4,198.8c0-25.6-7.6-27.7-17.1-27.8v95.9C160.8,262.9,171.4,224,171.4,198.8z"/>
</g>
<g>
	<path class="st2" d="M178,198.8c0,25.2,10.5,64,17.1,68.1V171C185.6,171.1,178,173.2,178,198.8z"/>
	<path class="st2" d="M214.4,198.8c0-25.6-7.6-27.7-17.1-27.8v95.9C203.8,262.9,214.4,224,214.4,198.8z"/>
</g>
<path class="st2" d="M25.3,171v26.1c1.6,15.8,4,31.1,7,45.5c0.5,2.2,1,4.3,1.7,6.4c4.5-14.5,8.5-34.9,8.5-50.3
	C42.4,173.2,34.8,171.1,25.3,171z"/>
<path class="st2" d="M220.5,198.8c0,19,6,45.8,11.8,59.5c2.2-5,3.9-10.2,5.1-15.7c0.1-0.4,0.2-0.8,0.2-1.2V171
	C228.1,171.1,220.5,173.2,220.5,198.8z"/>
<path class="st2" d="M239.8,171v59.3c3.3-18.5,5.5-38.2,6.5-58.6C244.3,171.2,242.1,171,239.8,171z"/>
<g>
	<path class="st2" d="M139.7,26.7c3-5.5,7-9,11.3-11c2.8-1.2,2.1-5.2-0.9-5.5c-3.6-0.3-7.3,0.3-10.8,2.1c-9,4.5-13.4,15.2-10,24.7
		c1.4,3.8,3.7,7,6.7,9.3c2.6,2,6.2-0.8,4.8-3.8C138.8,38.2,138.2,32.8,139.7,26.7z"/>
	<path class="st2" d="M137.1,38.7c1,0.7,2,1.5,2.9,2.5c6.5,6.6,7.5,17.1,2.5,24.9c-0.9,1.3-1.8,2.5-2.9,3.6c-1.6,1.5-0.1,4.1,2,3.6
		c4.5-1.1,8.6-3.7,11.6-7.8c5.9-8.2,4.8-19.7-2.6-26.6c-3.3-3.1-7.4-4.9-11.6-5.3C136.1,33.2,134.6,37,137.1,38.7z"/>
</g>
<g>
	<path class="st2" d="M130.1,79c3-5.5,7-9,11.3-11c2.8-1.2,2.1-5.2-0.9-5.5c-3.6-0.3-7.3,0.3-10.8,2.1c-9,4.5-13.4,15.2-10,24.7
		c1.4,3.8,3.7,7,6.7,9.3c2.6,2,6.2-0.8,4.8-3.8C129.2,90.5,128.6,85.1,130.1,79z"/>
	<path class="st2" d="M130.9,93.3c1,0.7,2,1.5,2.9,2.5c6.5,6.6,7.5,17.1,2.5,24.9c-0.9,1.3-1.8,2.5-2.9,3.6c-1.6,1.5-0.1,4.1,2,3.6
		c4.5-1.1,8.6-3.7,11.6-7.8c5.9-8.2,4.8-19.7-2.6-26.6c-3.3-3.1-7.4-4.9-11.6-5.3C130,87.8,128.5,91.5,130.9,93.3z"/>
</g>
<g>
	<path class="st3" d="M136.2,283.2c-55.5-11.7-98-45.4-110.1-82.9c0.6,8.3,2.8,32.9,8.5,49.2c9.9,33,40.6,55.9,75.6,55.9h50.6
		c21.5,0,41.5-8.7,55.9-23.1C192.8,288.5,164.9,289.2,136.2,283.2z"/>
</g>
</svg>
